X:1
T:Io ardo e se l'ardore
T:Luca Marenzio
T:Source : Il terzo libro delle Villanelle a tre voci---Venetia---G.Vincenzi---1587. Editor : André Vierendeels (02/06/17).
T:Notes : Original clefs : G2, C1, F3 Editorial accidentals above the staff m 17 in S 2 : "C" notated as "D" in original print
T:Io ardo e se l'ardore
T:©
T:©
C:Luca Marenzio
Z:©
%%score [ 1 2 3 ]
L:1/8
Q:1/4=120
M:4/4
K:F
V:1 treble nm="Soprano 1" snm="S 1"
V:2 treble nm="Soprano 2" snm="S 2"
V:3 treble-8 nm="Tenor" snm="T"
V:1
"^1)" G8 | B8 | c8 | d4 c4 | B8 | A4 z2 d2 |"^-natural" e2 f2 g4- | g2 f2 e4 |[M:2/4] d4 :: %9
w: Io|ar-|do'e|se l'ar-|do-|re, non|mi con- su-|* ma'il co-|re,|
w: Ogn'|hor|mi|dà tor-|men-|to, il|gran mar- tir,|_ ch'io sen-|to,|
[M:4/4] z2 B2 c3 c | c2 d2 _e3 f | _e2 d2 c4- | c4 c4 | z2 d2 e3 f | g2 e2 f2 d2 | f6 e2 | d4 c4 | %17
w: m'an- ci- 'drà'o|Clo- r'il non po-|ter- vi di-|* re,|d'ap- pres- so'il|vo- str'A- mor mi|fa mo-|ri- re,|
w: m'an- ci- drà'o|Clo- r'il non po-|ter- vi di-|* re,|so- lo'à _|_ _ lan- gui-||* re,|
 z2 c2 d3 e | f2 d2 c2 FG | ABcA B2 GA | BcdB c2 CD | EFGE ^F2 G2 | A4 !fermata!G4 :| %23
w: d'ap- pres- so'il|vostr' A- mor mi _|_ _ _ _ _ fa _|_ _ _ _ _ mo- *||ri- re.|
w: so- lo'à _|_ lan- gui- re, _|_ _ _ _ _ e'à _|_ _ _ _ so- spi- *|* * * * rar mi|me- na.|
V:2
"^2)""^1)" z4 G4- | G4 B4- | B4 A4 | B4 A4 | G8 | ^F2 F2 G4 | A4 =B4 | c2 d4 ^c2 |[M:2/4] d4 :: %9
w: Io|_ ar-|* o'e|se l'ar-|do-|re, non mi|con- su-|ma'il co- *|re,|
w: Io|_ pian-|* go'il|gior- no'in-|te-|ro, nè per|lan- guir|mai pe- *|ro,|
[M:4/4] z2 G2 A3 G | A2 B2 G3 F | G2 B2 A4- | A4 A4 | z2 D2 G3 F | E2 c2 A4- | A2 d2 =B2 c2- | %16
w: m'an- ci- drà'o|Clo- r'il non po-|ter- vi di-|* re,|d'ap- pres- so'il|vo- str'A- mor|_ mi fa mo-|
w: che sol m'an-|ci- de'o Clo- ri'e|mi dis- fa-|* ce,|l'ar- der _|_ mio _|_ lun- * *|
 c2 =B2 c4 | z2 A2 F3 E | D2 B2 A4- | A4 d3 c | BAGF E2 c2- | c2 B2 A2 G2- | G2 ^F2 !fermata!G4 :| %23
w: * ri- re,|d'ap- pres- so'il|vo- str'A- mor|_ mi _|_ _ _ _ _ fa|_ mo- * ri-|* * re.|
w: * * gi,|l'ar- der _|_ mio lun-|* gi'à la|tua _ _ _ _ dol-|* * ce fa-|* * ce.|
V:3
"^3)""^1)""^4)" G8 | G8 | F8 | B4 F4 | G8 | D2 d2 c2 B2 | A4 G4 | A8 |[M:2/4] D4 :: %9
w: Io|ar-|do'e|se l'ar-|do-|re, non mi con-|su- ma'il|co-|re,|
w: A-|mo-|re'il|cor col|fo-|co, an- ci- di'o|dam- mi|lo-|co,|
[M:4/4] G4 F3 E | F2 B,2 _E3 D | C2 B,2 F4- | F4 F4 | B4 c4- | c4 d4- | d4 G4- | G4 A4- | A4 B4- | %18
w: m'an- ci- drà'o|Clo- r'il non po-|ter- vi di-|* re,|d'ap- pres-|* so'il|_ vo-|* str'A-|* mor|
w: ch'io pos- s'a-|van- ti'à la mia|va- ga Clo-|* ri,|sco- pren-|* do-|* le'il|_ mio|_ mal,|
 B4 F4- | F4 G4- | G4 C4- | C4 D4- | D4 !fermata!G4 :| %23
w: _ mi|_ fa|_ mo-|* ri-|* re.|
w: _ tem-|* pra|_ gli'ar-|* do-|* ri.|

